static/roadshow/injective.svg

<svg width="400" height="400" viewBox="0 0 400 400" fill="none" xmlns="http://www.w3.org/2000/svg">
<path d="M246.6 361.2C245.8 360.4 245 359.6 244.2 359.6C223.5 354.8 204.4 347.7 187.7 338.1C151.1 316.6 128 285.6 127.2 248.9C127.2 235.4 129.6 221.8 136 208.3C140 200.3 159.1 170.9 163.1 165.3C176.6 143.8 171.9 145.4 153.5 119.1L124.8 79.3002L106.5 52.2002C95.4002 59.4002 85.8002 67.3002 76.2002 76.1002C44.4002 107.9 25.2002 150.9 25.2002 199.5C25.2002 265.6 61.8002 322.9 115.2 352.4C54.7002 307.9 26.8002 241 49.9002 173.3C56.3002 155 65.8002 138.3 77.8002 123.1L97.7002 152.6C100.1 155.8 100.1 160.6 96.9002 163.7C87.3002 175.6 79.4002 189.2 74.6002 202.7C49.1002 278.3 118.4 354.8 191.6 367.5C205.9 369.9 231.4 372.3 244.1 369.1C247.4 368.4 248.2 363.6 246.6 361.2Z" fill="white"/>
<path d="M154.2 37.9998C154.2 38.7998 155 39.5998 156.6 39.5998C177.3 44.3998 196.4 51.4998 213.1 61.0998C249.7 82.5998 272.8 113.6 273.6 150.3C273.6 163.8 271.2 177.4 264.8 190.9C260.8 198.9 241.7 228.3 237.7 233.9C224.2 255.4 228.9 253.8 247.3 280.1L275.2 320.7L293.5 347.8C304.6 340.6 314.2 332.7 323.8 323.9C355.6 292.1 374.8 248.3 374.8 200.5C375.6 134.4 339 77.0998 285.6 47.5998C346.1 92.1998 374 159.1 350.9 226.7C344.5 245 335 261.7 323 276.9L303.1 246.6C300.7 243.4 300.7 238.6 303.9 235.5C313.5 223.6 321.4 210 326.2 196.5C351.7 122.5 282.4 45.1998 210 32.4998C195.7 30.0998 170.2 27.6998 157.5 30.8998C152.6 31.5998 151.8 35.5998 154.2 37.9998Z" fill="white"/>
</svg>

<?xml version="1.0" encoding="utf-8"?>
<!-- Generator: Adobe Illustrator 25.2.1, SVG Export Plug-In . SVG Version: 6.00 Build 0)  -->
<svg version="1.1" id="레이어_1" xmlns="http://www.w3.org/2000/svg" xmlns:xlink="http://www.w3.org/1999/xlink" x="0px"
	 y="0px" viewBox="0 0 400 400" style="enable-background:new 0 0 400 400;" xml:space="preserve">
<g id="레이어_2_1_">
</g>
<g id="레이어_1_1_">
	<g>
		<g>
			<path d="M246.6,361.2c-0.8-0.8-1.6-1.6-2.4-1.6c-20.7-4.8-39.8-11.9-56.5-21.5c-36.6-21.5-59.7-52.5-60.5-89.2
				c0-13.5,2.4-27.1,8.8-40.6c4-8,23.1-37.4,27.1-43c13.5-21.5,8.8-19.9-9.6-46.2l-28.7-39.8l-18.3-27.1l0,0l0,0l0,0
				c-11.1,7.2-20.7,15.1-30.3,23.9c-31.8,31.8-51,74.8-51,123.4c0,66.1,36.6,123.4,90,152.9C54.7,307.9,26.8,241,49.9,173.3
				c6.4-18.3,15.9-35,27.9-50.2l19.9,29.5c2.4,3.2,2.4,8-0.8,11.1c-9.6,11.9-17.5,25.5-22.3,39c-25.5,75.6,43.8,152.1,117,164.8
				c14.3,2.4,39.8,4.8,52.5,1.6C247.4,368.4,248.2,363.6,246.6,361.2z"/>
		</g>
		<g>
			<path d="M154.2,38c0,0.8,0.8,1.6,2.4,1.6c20.7,4.8,39.8,11.9,56.5,21.5c36.6,21.5,59.7,52.5,60.5,89.2c0,13.5-2.4,27.1-8.8,40.6
				c-4,8-23.1,37.4-27.1,43c-13.5,21.5-8.8,19.9,9.6,46.2l27.9,40.6l18.3,27.1l0,0l0,0l0,0c11.1-7.2,20.7-15.1,30.3-23.9
				c31.8-31.8,51-75.6,51-123.4c0.8-66.1-35.8-123.4-89.2-152.9c60.5,44.6,88.4,111.5,65.3,179.1c-6.4,18.3-15.9,35-27.9,50.2
				l-19.9-30.3c-2.4-3.2-2.4-8,0.8-11.1c9.6-11.9,17.5-25.5,22.3-39c25.5-74-43.8-151.3-116.2-164c-14.3-2.4-39.8-4.8-52.5-1.6
				C152.6,31.6,151.8,35.6,154.2,38z"/>
		</g>
	</g>
</g>
</svg>
